public/asset/icons/email.svg

<svg id="Capa_1" enable-background="new 0 0 512 512" height="512" viewBox="0 0 512 512" width="512" xmlns="http://www.w3.org/2000/svg"><path d="m512 203.06v-.045c0-.427-.024-.85-.059-1.271-.01-.115-.025-.229-.037-.344-.036-.33-.082-.657-.139-.981-.021-.122-.042-.244-.066-.365-.08-.395-.171-.787-.282-1.172-.011-.038-.02-.077-.031-.115-.117-.394-.253-.781-.401-1.163-.056-.146-.118-.289-.179-.434-.109-.258-.226-.513-.35-.764-.072-.146-.141-.293-.217-.437-.187-.351-.386-.695-.6-1.031-.08-.125-.168-.245-.252-.368-.167-.245-.34-.485-.521-.719-.097-.125-.194-.249-.295-.372-.263-.319-.535-.631-.825-.928-.023-.023-.045-.047-.068-.07-.31-.315-.64-.612-.979-.9-.042-.036-.078-.076-.121-.111l-25.578-21.225v-65.229c0-19.299-15.701-35-35-35h-85.776l-69.1-57.345c-20.354-16.888-49.896-16.888-70.248 0l-69.1 57.344h-85.776c-19.299 0-35 15.701-35 35v65.229l-25.579 21.228c-.042.035-.079.075-.121.111-.339.288-.669.585-.979.9-.023.023-.045.047-.068.07-.289.297-.562.609-.825.928-.101.122-.198.247-.295.372-.181.235-.354.475-.521.719-.084.123-.172.243-.252.368-.214.335-.413.679-.6 1.031-.077.144-.146.291-.217.437-.124.251-.24.506-.35.764-.061.144-.123.288-.179.434-.148.382-.285.768-.401 1.163-.011.038-.02.076-.031.115-.111.385-.202.777-.282 1.172-.024.122-.045.243-.066.365-.057.324-.103.651-.139.981-.012.115-.027.229-.037.344-.034.419-.058.842-.058 1.269v.045.008 253.927c0 15.718 6.638 29.906 17.246 39.939.301.301.603.599.925.87 9.757 8.814 22.676 14.19 36.829 14.19h402c14.154 0 27.074-5.377 36.832-14.193.319-.27.619-.565.918-.864 10.61-10.033 17.25-24.223 17.25-39.943v-253.926c0-.002 0-.005 0-.008zm-446-103.045h380c2.757 0 5 2.243 5 5v116.682l-8.488 7.044-170.546 141.533c-9.251 7.677-22.681 7.676-31.932 0l-170.546-141.532-8.488-7.045v-116.682c0-2.757 2.243-5 5-5zm-36 356.98v-222.04l6.452 5.355c.004.003.008.007.012.01l146.469 121.551-151.397 103.752c-.993-2.69-1.536-5.597-1.536-8.628zm176.937-75.204 13.939 11.568c20.352 16.89 49.896 16.889 70.248 0l13.939-11.568 146.22 100.204h-390.567zm122.13-19.919 146.468-121.552c.004-.003.008-.007.012-.01l6.452-5.355v222.04c0 3.031-.543 5.938-1.536 8.628zm-89.033-326.114c9.251-7.677 22.681-7.677 31.932 0l41.281 34.258h-114.494z"/><path d="m131.5 164.995c0 8.284 6.716 15 15 15h142c8.284 0 15-6.716 15-15s-6.716-15-15-15h-142c-8.284 0-15 6.716-15 15z"/><path d="m146.5 239.995h219c6.988 0 12.843-4.786 14.509-11.254.309-1.2.491-2.45.491-3.746 0-8.284-6.716-15-15-15h-219c-8.284 0-15 6.716-15 15 0 1.296.182 2.547.491 3.746 1.666 6.469 7.521 11.254 14.509 11.254z"/></svg>

<svg xmlns="http://www.w3.org/2000/svg" width="512" height="511.989" viewBox="0 0 512 511.989">
  <defs>
    <style>
      .cls-1 {
        fill: #222831;
      }
    </style>
  </defs>
  <g id="email" transform="translate(0 -0.005)">
    <path id="Tracé_1" data-name="Tracé 1" class="cls-1" d="M512,203.06v-.045c0-.427-.024-.85-.059-1.271-.01-.115-.025-.229-.037-.344q-.054-.5-.139-.981c-.021-.122-.042-.244-.066-.365-.08-.4-.171-.787-.282-1.172-.011-.038-.02-.077-.031-.115-.117-.394-.253-.781-.4-1.163-.056-.146-.118-.289-.179-.434q-.164-.387-.35-.764c-.072-.146-.141-.293-.217-.437-.187-.351-.386-.7-.6-1.031-.08-.125-.168-.245-.252-.368q-.25-.367-.521-.719c-.1-.125-.194-.249-.3-.372-.263-.319-.535-.631-.825-.928l-.068-.07c-.31-.315-.64-.612-.979-.9-.042-.036-.078-.076-.121-.111L481,170.245V105.016a35.04,35.04,0,0,0-35-35H360.224l-69.1-57.345a55.034,55.034,0,0,0-70.248,0l-69.1,57.344H66a35.04,35.04,0,0,0-35,35v65.229L5.421,191.472c-.042.035-.079.075-.121.111-.339.288-.669.585-.979.9l-.068.07c-.289.3-.562.609-.825.928-.1.122-.2.247-.3.372q-.271.353-.521.719c-.084.123-.172.243-.252.368-.214.335-.413.679-.6,1.031-.077.144-.146.291-.217.437-.124.251-.24.506-.35.764-.061.144-.123.288-.179.434-.148.382-.285.768-.4,1.163-.011.038-.02.076-.031.115-.111.385-.2.777-.282,1.172-.024.122-.045.243-.066.365q-.085.486-.139.981c-.012.115-.027.229-.037.344-.034.419-.058.842-.058,1.269v253.98a54.837,54.837,0,0,0,17.246,39.939c.3.3.6.6.925.87A54.779,54.779,0,0,0,55,511.994H457A54.78,54.78,0,0,0,493.832,497.8c.319-.27.619-.565.918-.864A54.839,54.839,0,0,0,512,456.994V203.06ZM66,100.015H446a5.006,5.006,0,0,1,5,5V221.7l-8.488,7.044L271.966,370.274a25.017,25.017,0,0,1-31.932,0L69.488,228.742,61,221.7V105.015a5.006,5.006,0,0,1,5-5ZM30,456.995V234.955l6.452,5.355.012.01L182.933,361.871,31.536,465.623A24.868,24.868,0,0,1,30,456.995Zm176.937-75.2,13.939,11.568a55.03,55.03,0,0,0,70.248,0l13.939-11.568,146.22,100.2H60.716Zm122.13-19.919L475.535,240.32l.012-.01L482,234.955v222.04a24.867,24.867,0,0,1-1.536,8.628ZM240.034,35.758a25.015,25.015,0,0,1,31.932,0l41.281,34.258H198.753Z"/>
    <path id="Tracé_2" data-name="Tracé 2" class="cls-1" d="M131.5,164.995a15,15,0,0,0,15,15h142a15,15,0,0,0,0-30h-142A15,15,0,0,0,131.5,164.995Z"/>
    <path id="Tracé_3" data-name="Tracé 3" class="cls-1" d="M146.5,239.995h219a15,15,0,0,0,0-30h-219a15,15,0,0,0,0,30Z"/>
  </g>
</svg>
